Themes/OneUI/assets/svg/sec_ic_settings_docomo_au.svg

<?xml version="1.0" encoding="UTF-8" standalone="no"?>
<svg
   width="28.000021"
   height="28.000021"
   viewBox="0 0 28.000021 28.000021"
   fill="none"
   version="1.1"
   id="svg2002"
   sodipodi:docname="sec_ic_settings_docomo_au.svg"
   xmlns:inkscape="http://www.inkscape.org/namespaces/inkscape"
   xmlns:sodipodi="http://sodipodi.sourceforge.net/DTD/sodipodi-0.dtd"
   xmlns="http://www.w3.org/2000/svg"
   xmlns:svg="http://www.w3.org/2000/svg">
  <sodipodi:namedview
     id="namedview2004"
     pagecolor="#ffffff"
     bordercolor="#666666"
     borderopacity="1.0"
     inkscape:showpageshadow="2"
     inkscape:pageopacity="0.0"
     inkscape:pagecheckerboard="0"
     inkscape:deskcolor="#d1d1d1" />
  <g
     clip-path="url(#clip0_1_1409)"
     id="g1995">
    <path
       d="M 24.856,3.14401 C 23.13,1.52161 20.7739,0.601214 18.1738,0.256914 15.6907,-0.072186 14,0.00881404 14,0.00881404 c 0,0 -1.691,-0.08100004 -4.17421,0.24809996 -2.6,0.3443 -4.956,1.264696 -6.6815,2.887096 -1.6228,1.7258 -2.543099,4.0819 -2.887599,6.6819 -0.3291004,2.48299 -0.2478004,4.17399 -0.2478004,4.17399 0,0 -0.0813,1.6908 0.2478004,4.174 0.3445,2.5998 1.264799,4.9561 2.887399,6.6819 1.7257,1.6226 4.0817,2.5428 6.6817,2.8875 C 12.309,28.0722 14,27.9912 14,27.9912 c 0,0 1.6907,0.081 4.1738,-0.2479 2.6001,-0.3447 4.9562,-1.2649 6.6818,-2.8875 1.623,-1.7258 2.5432,-4.0821 2.8877,-6.6819 0.3289,-2.4832 0.2479,-4.174 0.2479,-4.174 0,0 0.081,-1.691 -0.2479,-4.17399 -0.3445,-2.6 -1.2647,-4.9561 -2.8873,-6.6819 z"
       fill="#e17282"
       id="path1991" />
    <path
       d="m 14.958,5 -2e-4,2.5548 c 1.0845,0.159 2.0821,0.5851 2.9239,1.2094 l 1.8049,-1.8056 1.3548,1.3548 -1.8045,1.8046 c 0.6255,0.8416 1.0527,1.8392 1.2126,2.9239 L 23,13.042 v 1.916 l -2.5505,10e-5 c -0.1599,1.0847 -0.5871,2.0823 -1.2126,2.9239 l 1.8045,1.8046 -1.3548,1.3548 -1.8049,-1.8056 c -0.8418,0.6243 -1.8394,1.0504 -2.9239,1.2094 L 14.958,23 h -1.916 l 5e-4,-2.5563 c -1.083,-0.1604 -2.079,-0.5873 -2.9194,-1.2119 L 8.3134,21.0414 6.9586,19.6866 8.7687,17.8758 C 8.1457,17.0356 7.7202,16.0401 7.5607,14.9581 L 5,14.958 v -1.916 l 2.5607,-10e-5 c 0.1595,-1.082 0.585,-2.0775 1.208,-2.9177 L 6.9586,8.3134 8.3134,6.9586 10.1231,8.7682 C 10.9635,8.1436 11.9595,7.7167 13.0425,7.5563 L 13.042,5 Z m -0.9529,4.4017 c -2.5396,0 -4.5983,2.0587 -4.5983,4.5983 0,2.5396 2.0587,4.5983 4.5983,4.5983 2.5396,0 4.5983,-2.0587 4.5983,-4.5983 0,-2.5396 -2.0587,-4.5983 -4.5983,-4.5983 z"
       fill="#ffffff"
       id="path1993" />
  </g>
  <defs
     id="defs2000">
    <clipPath
       id="clip0_1_1409">
      <rect
         width="28"
         height="28"
         fill="#ffffff"
         id="rect1997"
         x="0"
         y="0" />
    </clipPath>
  </defs>
</svg>

<svg width="28" height="28" viewBox="0 0 28 28" fill="none" xmlns="http://www.w3.org/2000/svg">
<g clip-path="url(#clip0_1_1409)">
<path d="M24.856 3.14401C23.13 1.52161 20.7739 0.601214 18.1738 0.256914C15.6907 -0.072186 14 0.00881404 14 0.00881404C14 0.00881404 12.309 -0.072186 9.82579 0.256914C7.22579 0.601214 4.86979 1.52161 3.14429 3.14401C1.52149 4.86981 0.601191 7.22591 0.256691 9.82591C-0.0724094 12.3089 0.0088906 13.9999 0.0088906 13.9999C0.0088906 13.9999 -0.0724094 15.6907 0.256691 18.1739C0.601191 20.7737 1.52149 23.13 3.14409 24.8558C4.86979 26.4784 7.22579 27.3986 9.82579 27.7433C12.309 28.0722 14 27.9912 14 27.9912C14 27.9912 15.6907 28.0722 18.1738 27.7433C20.7739 27.3986 23.13 26.4784 24.8556 24.8558C26.4786 23.13 27.3988 20.7737 27.7433 18.1739C28.0722 15.6907 27.9912 13.9999 27.9912 13.9999C27.9912 13.9999 28.0722 12.3089 27.7433 9.82591C27.3988 7.22591 26.4786 4.86981 24.856 3.14401Z" fill="#E17282"/>
<path d="M14.958 5L14.9578 7.5548C16.0423 7.7138 17.0399 8.1399 17.8817 8.7642L19.6866 6.9586L21.0414 8.3134L19.2369 10.118C19.8624 10.9596 20.2896 11.9572 20.4495 13.0419L23 13.042V14.958L20.4495 14.9581C20.2896 16.0428 19.8624 17.0404 19.2369 17.882L21.0414 19.6866L19.6866 21.0414L17.8817 19.2358C17.0399 19.8601 16.0423 20.2862 14.9578 20.4452L14.958 23H13.042L13.0425 20.4437C11.9595 20.2833 10.9635 19.8564 10.1231 19.2318L8.3134 21.0414L6.9586 19.6866L8.7687 17.8758C8.1457 17.0356 7.7202 16.0401 7.5607 14.9581L5 14.958V13.042L7.5607 13.0419C7.7202 11.9599 8.1457 10.9644 8.7687 10.1242L6.9586 8.3134L8.3134 6.9586L10.1231 8.7682C10.9635 8.1436 11.9595 7.7167 13.0425 7.5563L13.042 5H14.958ZM14.0051 9.4017C11.4655 9.4017 9.4068 11.4604 9.4068 14C9.4068 16.5396 11.4655 18.5983 14.0051 18.5983C16.5447 18.5983 18.6034 16.5396 18.6034 14C18.6034 11.4604 16.5447 9.4017 14.0051 9.4017Z" fill="white"/>
</g>
<defs>
<clipPath id="clip0_1_1409">
<rect width="28" height="28" fill="white"/>
</clipPath>
</defs>
</svg>
